Suru++-Ubuntu/apps/symbolic/evince-symbolic.svg

<svg width="16" height="16" version="1.1" xmlns="http://www.w3.org/2000/svg">
 <g transform="translate(-492,-220)">
  <path transform="translate(492,220)" d="m3.9941406 1c-1.2582 0.0145-2.1788906-0.03060437-2.9316406 0.3847656-0.37637 0.20766-0.67323062 0.5593869-0.83789062 0.9980469-0.16467 0.43867-0.22460938 0.9595775-0.22460938 1.6171875v8c0 0.65761 0.059899375 1.178578 0.22460938 1.617188 0.16467999 0.43861 0.46153062 0.788523 0.83789062 0.996093 0.75272 0.41513 1.6735406 0.371649 2.9316406 0.386719h0.0019532 8.0058592 0.003906c1.25819-0.0145 2.178891 0.030604 2.931641-0.384766 0.37637-0.20766 0.673221-0.559387 0.837891-0.998046 0.16453-0.438671 0.224609-0.959578 0.224609-1.617188v-8c0-0.65761-0.059899-1.1785775-0.224609-1.6171875-0.16468-0.43861-0.461531-0.7885237-0.837891-0.9960937-0.75272-0.41513005-1.673551-0.3716488-2.931641-0.3867188h-0.001953-8.0058591-0.0039063zm0.0058594 1h8c1.25862 0.0152 2.089098 0.0598988 2.455078 0.2617188 0.18342 0.1011599 0.287226 0.2128562 0.384766 0.4726562 0.09741 0.25979 0.160156 0.673235 0.160156 1.265625v3.890625c-1.005856 1.1814764-2.316573 2.1039299-3.777344 2.628906-1.3715998 0.49293-2.8994654 0.638458-4.2910154 0.205078-0.3554754-0.110712-0.6978986-0.261208-1.0214844-0.445312 0.5741451-0.3594447 1.1317606-0.7448379 1.6699219-1.1562501 0.73727-0.56362 1.4528938-1.1919763 1.9023438-2.0039063 0.22472-0.40596 0.3783887-0.8560393 0.4179687-1.3183594 0.0396-0.46232-0.0387831-0.9374693-0.2519531-1.3496093-0.18032-0.34862-0.4540038-0.6466407-0.7773437-0.8691407-0.3233501-0.2224899-0.693695-0.3700487-1.078125-0.4492187-0.76885-0.15834-1.5738694-0.0398956-2.3183594 0.2089844-1.00645 0.33645-1.9425306 0.9188081-2.6191406 1.7363281-0.67661 0.81751-1.0790807 1.87766-1.0253907 2.9375 0.0585 1.15341 0.6508938 2.242277 1.4960938 3.029297 0.007158 0.006665 0.0162459 0.010953 0.0234375 0.017578-0.741472 0.511487-1.51704 0.971355-2.3242188 1.371094-0.0096025-0.140785-0.0253906-0.264104-0.0253906-0.433594v-8c0-0.59239 0.0625962-1.005725 0.1601562-1.265625 0.0976-0.25991 0.2013557-0.3714662 0.3847657-0.4726562 0.36596-0.2019201 1.1965481-0.2470188 2.4550781-0.2617188zm2.0195312 2.0332031c0.2821501-0.0107 0.5681951 0.0361944 0.828125 0.1464844 0.25994 0.11026 0.4925825 0.2854456 0.6640626 0.5097656 0.19754 0.25841 0.3099706 0.5763206 0.3378906 0.9003907 0.0279 0.32406-0.0262825 0.6536175-0.1328125 0.9609374-0.21312 0.6146301-0.6296232 1.1352807-1.0644531 1.6191407-0.4861939 0.541021-1.0086468 1.0488054-1.5546876 1.5292969-0.0169566-0.0150969-0.0360025-0.0276138-0.0527343-0.0429688-0.53692-0.49273-0.9537413-1.1203631-1.1757813-1.8144531-0.25715-0.80385-0.2406787-1.7119407 0.1445313-2.4628907 0.1926-0.37547 0.4744156-0.7064025 0.8222656-0.9453124 0.34785-0.2389101 0.7619137-0.3843707 1.1835937-0.4003907zm8.9804688 6.6660159v1.300781c0 0.59239-0.062596 1.005725-0.160156 1.265625-0.0976 0.25991-0.201356 0.371466-0.384766 0.472656-0.36596 0.20192-1.196558 0.247009-2.455078 0.261719h-7.9941406-0.0058594c-1.25863-0.0152-2.0890981-0.059899-2.4550781-0.261719-0.18342-0.10116-0.2872257-0.212856-0.3847657-0.472656-0.0633602-0.168738-0.1045613-0.429064-0.1308593-0.734375 0.9484795-0.307541 1.8775965-0.67163 2.7753906-1.105469 0.7590145 0.567032 1.6445894 0.961304 2.5644531 1.201172 1.63324 0.42589 3.3775494 0.416966 5.0058594-0.027344 1.326786-0.362075 2.564666-1.024862 3.625-1.90039z" style="fill:#808080"/>
 </g>
</svg>

<svg xmlns="http://www.w3.org/2000/svg" width="16" height="16" version="1.1">
 <g transform="translate(-492,-220)">
  <path style="fill:#808080" d="M 3.9941406 1 C 2.7359406 1.0145 1.81525 0.96939563 1.0625 1.3847656 C 0.68613 1.5924256 0.38926938 1.9441525 0.22460938 2.3828125 C 0.059939375 2.8214825 0 3.34239 0 4 L 0 12 C 0 12.65761 0.059899375 13.178578 0.22460938 13.617188 C 0.38928937 14.055798 0.68614 14.405711 1.0625 14.613281 C 1.81522 15.028411 2.7360406 14.98493 3.9941406 15 L 3.9960938 15 L 12.001953 15 L 12.005859 15 C 13.264049 14.9855 14.18475 15.030604 14.9375 14.615234 C 15.31387 14.407574 15.610721 14.055847 15.775391 13.617188 C 15.939921 13.178517 16 12.65761 16 12 L 16 4 C 16 3.34239 15.940101 2.8214225 15.775391 2.3828125 C 15.610711 1.9442025 15.31386 1.5942888 14.9375 1.3867188 C 14.18478 0.97158875 13.263949 1.01507 12.005859 1 L 12.003906 1 L 3.9980469 1 L 3.9941406 1 z M 4 2 L 12 2 C 13.25862 2.0152 14.089098 2.0598988 14.455078 2.2617188 C 14.638498 2.3628787 14.742304 2.474575 14.839844 2.734375 C 14.937254 2.994165 15 3.40761 15 4 L 15 7.890625 C 13.994144 9.0721014 12.683427 9.9945549 11.222656 10.519531 C 9.8510562 11.012461 8.3231906 11.157989 6.9316406 10.724609 C 6.5761652 10.613897 6.233742 10.463401 5.9101562 10.279297 C 6.4843013 9.9198523 7.0419168 9.5344591 7.5800781 9.1230469 C 8.3173481 8.5594269 9.0329719 7.9310706 9.4824219 7.1191406 C 9.7071419 6.7131806 9.8608106 6.2631013 9.9003906 5.8007812 C 9.9399906 5.3384612 9.8616075 4.8633119 9.6484375 4.4511719 C 9.4681175 4.1025519 9.1944337 3.8045312 8.8710938 3.5820312 C 8.5477437 3.3595413 8.1773988 3.2119825 7.7929688 3.1328125 C 7.0241188 2.9744725 6.2190994 3.0929169 5.4746094 3.3417969 C 4.4681594 3.6782469 3.5320788 4.260605 2.8554688 5.078125 C 2.1788588 5.895635 1.7763881 6.955785 1.8300781 8.015625 C 1.8885781 9.169035 2.4809719 10.257902 3.3261719 11.044922 C 3.3333299 11.051587 3.3424178 11.055875 3.3496094 11.0625 C 2.6081374 11.573987 1.8325694 12.033855 1.0253906 12.433594 C 1.0157881 12.292809 1 12.16949 1 12 L 1 4 C 1 3.40761 1.0625962 2.994275 1.1601562 2.734375 C 1.2577562 2.474465 1.3615119 2.3629088 1.5449219 2.2617188 C 1.9108819 2.0597987 2.74147 2.0147 4 2 z M 6.0195312 4.0332031 C 6.3016813 4.0225031 6.5877263 4.0693975 6.8476562 4.1796875 C 7.1075962 4.2899475 7.3402387 4.4651331 7.5117188 4.6894531 C 7.7092588 4.9478631 7.8216894 5.2657737 7.8496094 5.5898438 C 7.8775094 5.9139038 7.8233269 6.2434613 7.7167969 6.5507812 C 7.5036769 7.1654113 7.0871737 7.6860619 6.6523438 8.1699219 C 6.1661499 8.7109429 5.643697 9.2187273 5.0976562 9.6992188 C 5.0806996 9.6841219 5.0616537 9.671605 5.0449219 9.65625 C 4.5080019 9.16352 4.0911806 8.5358869 3.8691406 7.8417969 C 3.6119906 7.0379469 3.6284619 6.1298562 4.0136719 5.3789062 C 4.2062719 5.0034362 4.4880875 4.6725037 4.8359375 4.4335938 C 5.1837875 4.1946837 5.5978512 4.0492231 6.0195312 4.0332031 z M 15 10.699219 L 15 12 C 15 12.59239 14.937404 13.005725 14.839844 13.265625 C 14.742244 13.525535 14.638488 13.637091 14.455078 13.738281 C 14.089118 13.940201 13.25852 13.98529 12 14 L 4.0058594 14 L 4 14 C 2.74137 13.9848 1.9109019 13.940101 1.5449219 13.738281 C 1.3615019 13.637121 1.2576962 13.525425 1.1601562 13.265625 C 1.096796 13.096887 1.0555949 12.836561 1.0292969 12.53125 C 1.9777764 12.223709 2.9068934 11.85962 3.8046875 11.425781 C 4.563702 11.992813 5.4492769 12.387085 6.3691406 12.626953 C 8.0023806 13.052843 9.74669 13.043919 11.375 12.599609 C 12.701786 12.237534 13.939666 11.574747 15 10.699219 z" transform="translate(492,220)"/>
 </g>
</svg>
